icons/svg/food/biergarten.svg

<?xml version="1.0" encoding="UTF-8" standalone="no"?>
<!-- Created with Inkscape (http://www.inkscape.org/) -->

<svg
   xmlns:dc="http://purl.org/dc/elements/1.1/"
   xmlns:cc="http://creativecommons.org/ns#"
   xmlns:rdf="http://www.w3.org/1999/02/22-rdf-syntax-ns#"
   xmlns:svg="http://www.w3.org/2000/svg"
   xmlns="http://www.w3.org/2000/svg"
   xmlns:sodipodi="http://sodipodi.sourceforge.net/DTD/sodipodi-0.dtd"
   xmlns:inkscape="http://www.inkscape.org/namespaces/inkscape"
   version="1.0"
   width="580"
   height="580"
   id="svg2"
   sodipodi:version="0.32"
   inkscape:version="0.47 r22583"
   sodipodi:docname="food_biergarten.svg"
   inkscape:output_extension="org.inkscape.output.svg.inkscape">
  <metadata
     id="metadata10">
    <rdf:RDF>
      <cc:Work
         rdf:about="">
        <dc:format>image/svg+xml</dc:format>
        <dc:type
           rdf:resource="http://purl.org/dc/dcmitype/StillImage" />
        <cc:license
           rdf:resource="http://web.resource.org/cc/PublicDomain" />
        <dc:language>en</dc:language>
      </cc:Work>
    </rdf:RDF>
  </metadata>
  <sodipodi:namedview
     inkscape:window-height="973"
     inkscape:window-width="1280"
     inkscape:pageshadow="2"
     inkscape:pageopacity="0.0"
     guidetolerance="10.0"
     gridtolerance="10.0"
     objecttolerance="10.0"
     borderopacity="1.0"
     bordercolor="#666666"
     pagecolor="#ffffff"
     id="base"
     showgrid="false"
     inkscape:zoom="1.1264942"
     inkscape:cx="448.64488"
     inkscape:cy="277.36413"
     inkscape:window-x="0"
     inkscape:window-y="0"
     inkscape:current-layer="svg2"
     inkscape:window-maximized="1" />
  <defs
     id="defs4">
    <inkscape:perspective
       sodipodi:type="inkscape:persp3d"
       inkscape:vp_x="0 : 290 : 1"
       inkscape:vp_y="0 : 1000 : 0"
       inkscape:vp_z="580 : 290 : 1"
       inkscape:persp3d-origin="290 : 193.33333 : 1"
       id="perspective12" />
    <inkscape:perspective
       id="perspective3036"
       inkscape:persp3d-origin="0.5 : 0.33333333 : 1"
       inkscape:vp_z="1 : 0.5 : 1"
       inkscape:vp_y="0 : 1000 : 0"
       inkscape:vp_x="0 : 0.5 : 1"
       sodipodi:type="inkscape:persp3d" />
    <inkscape:perspective
       id="perspective3052"
       inkscape:persp3d-origin="0.5 : 0.33333333 : 1"
       inkscape:vp_z="1 : 0.5 : 1"
       inkscape:vp_y="0 : 1000 : 0"
       inkscape:vp_x="0 : 0.5 : 1"
       sodipodi:type="inkscape:persp3d" />
    <inkscape:perspective
       id="perspective3945"
       inkscape:persp3d-origin="0.5 : 0.33333333 : 1"
       inkscape:vp_z="1 : 0.5 : 1"
       inkscape:vp_y="0 : 1000 : 0"
       inkscape:vp_x="0 : 0.5 : 1"
       sodipodi:type="inkscape:persp3d" />
  </defs>
  <g
     id="g1327">
    <path
       d="M 66.275,1.768 C 24.94,1.768 1.704,23.139 1.704,66.804 L 1.704,516.927 C 1.704,557.771 22.598,579.156 63.896,579.156 L 515.92,579.156 C 557.227,579.156 578.149,558.84 578.149,516.927 L 578.149,66.804 C 578.149,24.203 557.227,1.768 514.627,1.768 C 514.624,1.768 66.133,1.625 66.275,1.768 z"
       style="fill:#111111;stroke:#eeeeee;stroke-width:3.40799999"
       id="path1329" />
  </g>
  <path
     style="opacity:0.1;fill:#ffffff;fill-opacity:1;fill-rule:evenodd;stroke:none"
     d="m 116.54107,83.44698 119.71194,-21.335331 132.2871,13.796881 8.04386,363.39512 18.58841,29.06501 c 0,0 -60.31626,57.03706 -152.88947,58.17487 C 149.7097,527.68134 96.478545,469.75328 96.478545,469.75328 L 119.96006,433.80197 116.54107,83.44698 z"
     id="path2381"
     sodipodi:nodetypes="ccccczccc" />
  <path
     style="fill:none;stroke:#ffffff;stroke-width:35;stroke-linecap:round;stroke-linejoin:round;stroke-miterlimit:4;stroke-opacity:1;stroke-dasharray:none;stroke-dashoffset:0"
     d="m 236.0545,60.223867 c -40.46871,0.891164 -80.28965,3.700653 -119.25773,17.024737 l 4.51683,354.207986 -0.31085,0.003 c -14.38283,9.26374 -22.611953,25.14847 -22.502276,36.74159 0.308947,32.65614 67.030646,58.51127 148.992656,57.73585 81.96211,-0.77541 148.1049,-27.88751 147.79595,-60.54364 -0.0969,-10.24616 -6.75576,-24.79773 -18.34426,-33.0909 l -2.89526,-2.07107 2.15553,-355.436922 C 328.6489,61.788933 281.91903,59.213884 236.0545,60.223867 z"
     id="path3839"
     sodipodi:nodetypes="ccccssscccc" />
  <path
     style="fill:none;stroke:#ffffff;stroke-width:24.86949539;stroke-linecap:round;stroke-linejoin:round;stroke-miterlimit:4;stroke-opacity:1;stroke-dasharray:none"
     d="m 380.69607,125.54711 93.65276,-3.97915 c 15.19172,2.89537 23.02298,11.79419 23.60885,26.60258 l -23.30581,194.30227 c -0.64884,14.16236 -9.75565,20.02526 -22.23803,22.57588 l -69.37862,7.74857"
     id="path3841"
     sodipodi:nodetypes="cccccc" />
  <path
     style="fill:none;stroke:#ffffff;stroke-width:22.05827141;stroke-linecap:round;stroke-linejoin:round;stroke-miterlimit:4;stroke-opacity:1;stroke-dasharray:none;stroke-dashoffset:0"
     d="m 120.54369,427.06113 c 28.30307,37.63947 80.60541,47.8991 127.81719,46.37248 45.92112,-1.48489 100.95684,-11.12188 126.58999,-44.12023"
     id="path3931"
     sodipodi:nodetypes="csc" />
  <path
     sodipodi:nodetypes="csc"
     id="path3933"
     d="m 116.33786,427.88444 c 28.30307,37.63946 84.81124,47.8991 132.02302,46.37248 45.92112,-1.48489 102.95684,-13.12188 128.58999,-46.12023"
     style="fill:none;stroke:#ffffff;stroke-width:30;stroke-linecap:round;stroke-linejoin:round;stroke-miterlimit:4;stroke-opacity:1;stroke-dasharray:none;stroke-dashoffset:0" />
  <path
     sodipodi:nodetypes="cccccc"
     id="path3935"
     d="m 380.69607,134.37041 87.03527,-3.97914 c 15.19172,2.89537 23.02298,11.79419 23.60886,26.60258 L 470.24022,335.6495 c -0.64884,14.16236 -9.75566,20.02526 -22.23804,22.57588 l -64.96696,7.9544"
     style="fill:none;stroke:#ffffff;stroke-width:30;stroke-linecap:round;stroke-linejoin:round;stroke-miterlimit:4;stroke-opacity:1;stroke-dasharray:none" />
  <path
     style="opacity:0.75;fill:#ffffff"
     d="m 245.74265,64.718609 c -85.4416,0 -132.63699,21.786771 -132.63699,26.859331 0,0.21533 0.10677,0.41537 0.35283,0.62725 l -0.35283,0 -5.55379,108.31282 18.58344,0 -2.7062,-76.48516 c 81.23408,56.30948 134.6429,-7.65863 241.05961,-2.15618 l 0.067,78.64134 19.18158,0 -7.72041,-114.9303 -0.23522,0 c 0.24521,-0.21188 0.39203,-0.41193 0.39203,-0.62725 0,-5.07256 -44.98869,-20.241851 -130.43116,-20.241851 l 6e-5,0 z"
     id="path2209"
     sodipodi:nodetypes="csccccccccccscc" />
</svg>

<svg width="580" height="580" viewBox="0 0 580 580" fill="none" xmlns="http://www.w3.org/2000/svg">
<g clip-path="url(#clip0)">
<path d="M66.275 1.76815C24.94 1.76815 1.70398 23.1391 1.70398 66.8041V516.927C1.70398 557.771 22.598 579.156 63.896 579.156H515.92C557.227 579.156 578.149 558.84 578.149 516.927V66.8041C578.149 24.2031 557.227 1.76815 514.627 1.76815C514.624 1.76815 66.133 1.62515 66.275 1.76815Z" fill="#111111" stroke="#EEEEEE" stroke-width="3.408"/>
<path opacity="0.1" fill-rule="evenodd" clip-rule="evenodd" d="M116.541 83.4472L236.253 62.1118L368.54 75.9087L376.584 439.304L395.172 468.369C395.172 468.369 334.856 525.406 242.283 526.544C149.71 527.682 96.4785 469.753 96.4785 469.753L119.96 433.802L116.541 83.4472Z" fill="white"/>
<path d="M236.055 60.2237C195.586 61.1149 155.765 63.9244 116.797 77.2484L121.314 431.456L121.003 431.459C106.62 440.723 98.3908 456.608 98.5005 468.201C98.8094 500.857 165.531 526.712 247.493 525.937C329.455 525.161 395.598 498.049 395.289 465.393C395.192 455.147 388.533 440.596 376.945 432.302L374.05 430.231L376.205 74.7943C328.649 61.7888 281.919 59.2137 236.055 60.2237Z" stroke="white" stroke-width="35" stroke-linecap="round" stroke-linejoin="round"/>
<path d="M380.696 125.547L474.349 121.568C489.541 124.463 497.372 133.362 497.958 148.17L474.652 342.473C474.003 356.635 464.896 362.498 452.414 365.049L383.035 372.797" stroke="white" stroke-width="24.8695" stroke-linecap="round" stroke-linejoin="round"/>
<path d="M120.544 427.061C148.847 464.701 201.149 474.96 248.361 473.434C294.282 471.949 349.318 462.312 374.951 429.313" stroke="white" stroke-width="22.0583" stroke-linecap="round" stroke-linejoin="round"/>
<path d="M116.338 427.884C144.641 465.524 201.149 475.783 248.361 474.257C294.282 472.772 351.318 461.135 376.951 428.137" stroke="white" stroke-width="30" stroke-linecap="round" stroke-linejoin="round"/>
<path d="M380.696 134.37L467.731 130.391C482.923 133.286 490.754 142.185 491.34 156.994L470.24 335.649C469.591 349.812 460.485 355.675 448.002 358.225L383.035 366.18" stroke="white" stroke-width="30" stroke-linecap="round" stroke-linejoin="round"/>
<path opacity="0.75" d="M245.743 64.7188C160.301 64.7188 113.106 86.5055 113.106 91.5781C113.106 91.7934 113.212 91.9934 113.458 92.2053H113.106L107.552 200.518H126.135L123.429 124.033C204.663 180.342 258.072 116.374 364.489 121.877L364.556 200.518H383.737L376.017 85.5878H375.782C376.027 85.376 376.174 85.1759 376.174 84.9606C376.174 79.888 331.185 64.7188 245.743 64.7188H245.743H245.743Z" fill="white"/>
</g>
<defs>
<clipPath id="clip0">
<path d="M0 0H580V580H0V0Z" fill="white"/>
</clipPath>
</defs>
</svg>
